!!!!SEGMENT: pl-wtm--r-328-m--007_moniuszko-stanislaw--kupiec-wenecki-no-7.krn
!!!cenid: 18xx:2998
!!!COM: Moniuszko, Stanisław
!!!COM-rismID: pe30008351
!!!CDT: 1819/05/05-1872/06/04
!!!CNT: Polish
!!!GTL: Kupiec wenecki
!!!OTL: No. 7
!!!OMV: 007
!!!PDT: 1869
!!!AGN: Secular
!!!SMS-siglum: PL-Wtm
!!!SMS-shelfmark: R 328/M
!!!SMS-shelfwork: 001-007 G
!!!SMS-variant:
!!!SMS-altvar:
!!!NIFC-rismSourceID: 1001090504
!!!NIFC-rismChildID: 1001090504
!!!NIFC-islandoraID:
!!!URL-pdf-islandora:
!!!URL-scan:
!!!ONB-nifc: UWAGA: No. 7 (razem: 7b i 7c), skan 0039
!!!AIN: 1 bass 1 clars 1 cor 1 fagot 1 viola 2 violn
!!!key:
**kern	**dynam	**kern	**dynam	**kern	**dynam	**kern	**dynam	**kern	**dynam	**kern	**dynam	**kern	**dynam
*group3	*	*group3	*	*group3	*	*group3	*	*group2	*	*group1	*	*group1	*
*part7	*part7	*part6	*part6	*part5	*part5	*part4	*part4	*part3	*part3	*part2	*part2	*part1	*part1
*staff7	*	*staff6	*	*staff5	*	*staff4	*	*staff3	*	*staff2	*	*staff1	*
*Ibass	*	*Iviola	*	*Ivioln	*	*Ivioln	*	*Icor	*	*Ifagot	*	*Iclars	*
*I"Viollc. CB:	*	*I"Vla.	*	*I"V. 2.	*	*I"V. 1.	*	*I"in F. Corni	*	*I"Fag.	*	*I"Clar.	*
*I'Viollc	*	*I'Vla	*	*I'V. 2.	*	*I'V. 1.	*	*	*	*	*	*	*
*clefF4	*	*clefC3	*	*clefG2	*	*clefG2	*	*clefG2	*	*clefF4	*	*clefG2	*
*	*	*	*	*	*	*	*	*ITrd4c7	*	*	*	*	*
*k[b-e-]	*	*k[b-e-]	*	*k[b-e-]	*	*k[b-e-]	*	*k[b-]	*	*k[b-e-]	*	*k[b-e-]	*
*E-:	*	*E-:	*	*E-:	*	*E-:	*	*E-:	*	*E-:	*	*E-:	*
*M4/4	*	*M4/4	*	*M4/4	*	*M4/4	*	*M4/4	*	*M4/4	*	*M4/4	*
*met(c)	*	*met(c)	*	*met(c)	*	*met(c)	*	*met(c)	*	*met(c)	*	*met(c)	*
=1	=1	=1	=1	=1	=1	=1	=1	=1	=1	=1	=1	=1	=1
*^	*	*	*	*	*	*^	*	*	*	*	*	*	*
*2\right	*2\right	*	*2\right	*	*2\right	*	*2\right	*2\right	*	*2\right	*	*2\right	*	*2\right	*
!LO:TX:t=P:problem=all\right&colon; global	!LO:TX:t=P:problem=all\right&colon; global	!	!LO:TX:t=P:problem=all\right&colon; global	!	!LO:TX:t=P:problem=all\right&colon; global	!	!LO:TX:t=P:problem=all\right&colon; global	!LO:TX:t=P:problem=all\right&colon; global	!	!LO:TX:t=P:problem=all\right&colon; global	!	!LO:TX:t=P:problem=all\right&colon; global	!	!LO:TX:t=P:problem=all\right&colon; global	!
!	!	!	!	!	!	!	!	!	!	!	!	!	!	!LO:TX:a:t=Bassanio.:color=blue	!
!	!	!LO:DY:rj	!	!LO:DY:rj	!	!LO:DY:rj	!	!	!LO:DY:rj	!	!LO:DY:rj	!	!LO:DY:rj	!LO:TX:a:t=No 7.:note=podkreślone na czerwono	!LO:DY:rj
!	!	!LO:HP:a	!	!	!	!	!	!	!	!	!	!	!	!	!
*	*	*	*tremolo	*	*tremolo	*	*	*	*	*	*	*	*	*	*
[<2BB-/	[>2E-\	ff >	32G/LLL 32e-	ff >	32B-/LLL 32g	ff >	(>[>2gg\	4e-\ 4b-	ff >	[>4e-X\ [>4g	ff	[>4B-\	ff >	[>4b-\ [>4gg	ff >
.	.	.	32G/ 32e-	.	32B-/ 32g	.	.	.	.	.	.	.	.	.	.
!	!	!	!	!	!	!	!	!	!	!	!	!	!	!LO:TX:a:t=b&colon;)	!
.	.	.	32G/ 32e-	.	32B-/ 32g	.	.	.	.	.	.	.	.	.	.
.	.	.	32G/ 32e-	.	32B-/ 32g	.	.	.	.	.	.	.	.	.	.
.	.	.	32G/ 32e-	.	32B-/ 32g	.	.	.	.	.	.	.	.	.	.
.	.	.	32G/ 32e-	.	32B-/ 32g	.	.	.	.	.	.	.	.	.	.
.	.	.	32G/ 32e-	.	32B-/ 32g	.	.	.	.	.	.	.	.	.	.
.	.	.	32G/ 32e-	.	32B-/ 32g	.	.	.	.	.	.	.	.	.	.
.	.	.	32G/ 32e-	.	32B-/ 32g	.	.	4ryy	.	8e-\] 8g]	.	8B-\]	]	8b-\] 8gg]	]
.	.	.	32G/ 32e-	.	32B-/ 32g	.	.	.	.	.	.	.	.	.	.
.	.	.	32G/ 32e-	.	32B-/ 32g	.	.	.	.	.	.	.	.	.	.
.	.	.	32G/ 32e-	.	32B-/ 32g	.	.	.	.	.	.	.	.	.	.
.	.	.	32G/ 32e-	.	32B-/ 32g	.	.	.	.	8r	.	8r	.	8r	.
.	.	.	32G/ 32e-	.	32B-/ 32g	.	.	.	.	.	.	.	.	.	.
.	.	.	32G/ 32e-	.	32B-/ 32g	.	.	.	.	.	.	.	.	.	.
.	.	.	32G/JJJ 32e-	.	32B-/JJJ 32g	.	.	.	.	.	.	.	.	.	.
*	*	*	*Xtremolo	*	*Xtremolo	*	*	*	*	*	*	*	*	*	*
8BB-/]	8E-\]	]	4G/ 4e-	]	4B-/ 4g	]	4gg\]	4ryy	]	2r	.	2r	.	2r	.
8r	8ryy	.	.	.	.	.	.	.	.	.	.	.	.	.	.
!	!	!	!	!	!	!LO:DY:rj	!	!	!	!	!	!	!	!	!
4r	4ryy	.	(>4d\	.	(<4d/	p	4dd\	4ryy	p	.	.	.	.	.	.
*v	*v	*	*	*	*	*	*v	*v	*	*	*	*	*	*	*
=2	=2	=2	=2	=2	=2	=2	=2	=2	=2	=2	=2	=2	=2
!	!	!LO:TX:b:t=ralent	!	!	!	!LO:TX:b:t=ralent	!	!	!	!	!	!	!
1r	.	4f\	.	4f/	.	4ff\	.	1r	.	1r	.	1r	.
.	.	4e-\	.	4e-/	.	4ee-\	.	.	.	.	.	.	.
.	.	4G/	.	4G/	.	4g/	.	.	.	.	.	.	.
.	.	4A/	.	4A/)	.	4a/)	.	.	.	.	.	.	.
=3	=3	=3	=3	=3	=3	=3	=3	=3	=3	=3	=3	=3	=3
1r	.	2B-/)	.	2B-/	.	2b-/	.	1ryy	.	1ryy	.	1ryy	.
.	.	2r	.	2r	.	2r	.	.	.	.	.	.	.
!!LO:LB:g=original
=4||	=4||	=4||	=4||	=4||	=4||	=4||	=4||	=4||	=4||	=4||	=4||	=4||	=4||
*k[f#]	*	*k[f#]	*	*k[f#]	*	*k[f#]	*	*k[f#]	*	*k[f#]	*	*k[f#]	*
*M4/4	*	*M4/4	*	*M4/4	*	*M4/4	*	*M4/4	*	*M4/4	*	*M4/4	*
*met(c)	*	*met(c)	*	*met(c)	*	*met(c)	*	*met(c)	*	*met(c)	*	*met(c)	*
*^	*	*	*	*	*	*	*	*	*	*	*	*	*
!LO:TX:t=P:pp[ianissimo]=pp.:problem	!	!	!LO:TX:t=P:pp[ianissimo]=pp.:problem	!	!LO:TX:t=P:pp[ianissimo]=pp.:problem	!	!	!	!	!	!	!	!	!
!LO:ART:color=blue	!	!LO:DY:rj	!LO:ART:color=blue	!LO:DY:rj	!LO:ART:color=blue	!LO:DY:rj	!LO:TX:a:t=No 7. c.:note=podkreślone na czerwono	!LO:DY:rj	!	!	!	!	!	!
1G;	1rBB	pp	1d;>	pp	1g;>	pp	1g;>	pp	1ryy	.	1ryy	.	1ryy	.
=5	=5	=5	=5	=5	=5	=5	=5	=5	=5	=5	=5	=5	=5	=5
!LO:ART:color=blue	!	!	!LO:ART:color=blue	!	!LO:ART:color=blue	!	!	!	!	!	!	!	!	!
1F#;	1r	.	1d;>	.	1a;>	.	1dd;>	.	1ryy	.	1ryy	.	1ryy	.
=6	=6	=6	=6	=6	=6	=6	=6	=6	=6	=6	=6	=6	=6	=6
!LO:ART:color=blue	!	!	!LO:ART:color=blue	!	!LO:ART:color=blue	!	!	!	!	!	!	!	!	!
1Fn;	1r	.	1d;>	.	1g;>	.	1b;>	.	1ryy	.	1ryy	.	1ryy	.
=7	=7	=7	=7	=7	=7	=7	=7	=7	=7	=7	=7	=7	=7	=7
!LO:ART:color=blue	!	!	!LO:ART:color=blue	!	!LO:ART:color=blue	!	!	!	!	!	!	!	!	!
1E;	1r	.	1d;>	.	1g#X;>	.	1ee;>	.	1ryy	.	1ryy	.	1ryy	.
=8	=8	=8	=8	=8	=8	=8	=8	=8	=8	=8	=8	=8	=8	=8
!LO:ART:color=blue	!	!	!LO:ART:color=blue	!	!LO:ART:color=blue	!	!	!	!	!	!	!	!	!
1AA;	1r	.	1c#X;>	.	1gn;>	.	1ee;>	.	1ryy	.	1ryy	.	1ryy	.
!!LO:LB:g=original
=9	=9	=9	=9	=9	=9	=9	=9	=9	=9	=9	=9	=9	=9	=9
!	!	!	!	!	!	!	!LO:TX:t=P:problem=w źródle partia skrzypiec 1 i 2 zapisana jest na jednej pięciolinii	!	!	!	!	!	!	!
!LO:ART:color=blue	!	!	!LO:ART:color=blue	!	!	!	!LO:TX:a:t=non troppo lento	!	!	!	!	!	!	!
1C;>	1r	.	1cn;>	.	[<1g	.	1ee-X;>	.	1ryy	.	1ryy	.	1ryy	.
=10	=10	=10	=10	=10	=10	=10	=10	=10	=10	=10	=10	=10	=10	=10
!LO:TX:a:t=a temp	!LO:TX:t=P:problem=fermata bezpośrednio nad pauzą	!	!	!	!	!	!LO:TX:b:t=a tempo	!	!	!	!	!	!	!
[>2D\	1r;>	.	(<4B/	.	(>2g\]	.	[>2dd/	.	1ryy	.	1ryy	.	1ryy	.
.	.	.	4B-X/	.	.	.	.	.	.	.	.	.	.	.
2D;>\]	.	.	2A/)	.	2f#\)	.	2dd/]	.	.	.	.	.	.	.
*v	*v	*	*	*	*	*	*	*	*	*	*	*	*	*
=11	=11	=11	=11	=11	=11	=11	=11	=11	=11	=11	=11	=11	=11
[<1GG	.	1B	.	(>1g	.	(>1dd	.	1ryy	.	1ryy	.	1ryy	.
=12	=12	=12	=12	=12	=12	=12	=12	=12	=12	=12	=12	=12	=12
2GG/]	.	2D/	.	2B\)	.	2gg\)	.	1ryy	.	1ryy	.	1ryy	.
2r	.	2r	.	2r	.	2r	.	.	.	.	.	.	.
!!LO:PB:g=original
==	==	==	==	==	==	==	==	==	==	==	==	==	==
*-	*-	*-	*-	*-	*-	*-	*-	*-	*-	*-	*-	*-	*-
!!!system-decoration: g1,g2,g3
!!!RDF**kern: > = above
!!!RDF**kern: < = below
!!!RDF**kern: @ = marked note, color=bl
!!!ENC: Krzysztof Stępień
!!!END: 2021-08-30
!!!EED: Jędrzej Mróz
!!!ESR: 2021-09-21
!!!YEC: Copyright 2022 Narodowy Instytut Fryderyka Chopina (https://polishscores.org)
!!!YEM: License CC-BY-4.0 (https://creativecommons.org/licenses/by/4.0)
